packages/bezier-icons/icons/devices.svg

<svg width="24" height="24" viewBox="0 0 24 24" fill="none" xmlns="http://www.w3.org/2000/svg">
<path fill-rule="evenodd" clip-rule="evenodd" d="M3.5 5.00012H20.5C21.327 5.00012 22 5.67312 22 6.50012V9.00012H20V7.00012H4V17H14L13.9998 19L0.999917 19.0001C0.447593 19.0001 -0.000142115 18.5523 -9.15527e-05 18C-4.09908e-05 17.4478 0.447622 17.0001 0.999847 17.0001L2 17V6.50012C2 5.67312 2.673 5.00012 3.5 5.00012ZM20.006 20H17.006V12H20.006V20ZM15.506 10H21.506C21.782 10 22.006 10.224 22.006 10.5V21.5C22.006 21.776 21.782 22 21.506 22H15.506C15.229 22 15.006 21.776 15.006 21.5V10.5C15.006 10.224 15.229 10 15.506 10Z" fill="#313234"/>
</svg>

<svg xmlns="http://www.w3.org/2000/svg" width="24" height="24" fill="none" viewBox="0 0 24 24"><path fill="#313234" fill-rule="evenodd" d="M3.5 5h17c.827 0 1.5.673 1.5 1.5V9h-2V7H4v10h10v2H1a1 1 0 0 1 0-2h1V6.5C2 5.673 2.673 5 3.5 5m16.506 15h-3v-8h3zm-4.5-10h6a.5.5 0 0 1 .5.5v11a.5.5 0 0 1-.5.5h-6a.5.5 0 0 1-.5-.5v-11a.5.5 0 0 1 .5-.5" clip-rule="evenodd"/></svg>
